X:1
T:Amicus fidelis
T:Pierre de la Rue
T:Source : Bicinia---Tomus II---Wittemberg---G.Rhau---1545. Editor : André Vierendeels (27/06/17).
T:Notes : Original clefs  : C4, F4 Original note values have been halved Editorial accidentals above the staff 
T:Amicus fidelis
T:©
T:©
C:Pierre de la Rue
Z:©
%%score [ 1 2 ]
L:1/8
Q:1/4=120
M:2/2
K:C
V:1 treble-8 nm="Tenor" snm="T"
V:2 bass nm="Bass" snm="B"
V:1
 z8 | A6 B2 | c2 d2 e4 | f2 e4 dc | B4 z2 A2- | ABcd ef e2- | e2 d3 c c2 | d4 z2 d2 | f4 f4 | %9
w: |A- *|mi- * cus|fi- de- * *|lis, me-|* * di- ca- men- tum vi-||tae, et|im- mor-|
 e2 d2 edcB | A2 d3 B c2 | BA B4 A2- |"^#" A2 G2 A2 c2- | c2 BA G3 A | Bc d4 c2- | c2 B2 c4 | %16
w: ta- li- ta- * * *|||* * tis, et|_ _ _ qui _|_ _ me- tu-|* * unt|
 z2 c2 d2 f2 | e2 d3 cBA | B4 A2 d2- | d2 cB cd ef | e2 d3 c c2 | d8 |] %22
w: Do- mi- *||* num in|_ _ _ ve- * ni- *|unt il- * *|lum.|
V:2
 D,6 E,2 | F,2 G,2 A,4- | A,2 G,F, G,2 A,2- |"^#""^#" A,2 G,F, E,2 A,2- | A,2 G,2 A,2 F,2- | %5
w: A- mi-|cus fi- de-||* * * lis, me-|* di- ca- men-|
 F,2 E,D, C,D,E,F, | G,F,E,D, E,4 | D,8 | z2 D,2 F,4 | G,8 | F,2 E,D, E,3 C, | D,2 C,B,, C,2 A,,2 | %12
w: |tum _ _ _ vi-|tae,|et im-|mor-|ta- * * li- *|* * * ta- *|
 B,,4 z2 A,,2- | A,,B,,C,D, E,F, G,2- | G,2 F,E, F,E,D,C, | D,4 C,4- |"^#" C,4 z2 F,2 | %17
w: tis, et|_ _ _ _ qui _ _|_ _ _ me _ _ _|tu- unt|_ Do-|
 G,2 B,4 A,2- | A,2 G,2 A,2 F,2 | G,2 B,2 A,2 G,2- | G,F,E,D, E,4 |"^#" D,8 |] %22
w: mi- * num,|_ in- ne- ni-|unt il- * *||lum.|

